64x64/apps/com.elsevier.MendeleyDesktop.svg

<svg height="64" width="64" xmlns="http://www.w3.org/2000/svg"><path d="m4 56.05v2a2.944 2.944 0 0 0 2.95 2.95h50.1a2.944 2.944 0 0 0 2.95-2.95v-2a2.944 2.944 0 0 1 -2.95 2.95h-50.1a2.944 2.944 0 0 1 -2.95-2.95z" opacity=".2"/><rect fill="#be212e" height="56" rx="2.948" width="56" x="4" y="4"/><path d="m20.697 19.004c-1.742.056-3.424.86-4.712 2.078-1.31 1.238-2.247 2.94-2.438 4.77a6.464 6.464 0 0 0 .29 2.718 5.602 5.602 0 0 0 1.441 2.286c.773.728 1.74 1.188 2.629 1.758" opacity=".2"/><g fill="#f4f4f7"><path d="m20.697 18.005c-1.742.055-3.424.859-4.712 2.078-1.31 1.238-2.247 2.94-2.438 4.77a6.464 6.464 0 0 0 .29 2.717 5.602 5.602 0 0 0 1.441 2.286c.773.728 1.74 1.188 2.629 1.758"/><path d="m6.95 4a2.944 2.944 0 0 0 -2.95 2.95v1a2.944 2.944 0 0 1 2.95-2.95h50.099a2.945 2.945 0 0 1 2.951 2.95v-1a2.945 2.945 0 0 0 -2.951-2.95h-50.1z" opacity=".2"/></g></svg>

<svg xmlns="http://www.w3.org/2000/svg" width="64" height="64"><path style="opacity:.2" d="M4 56.05v2A2.944 2.944 0 0 0 6.95 61h50.1A2.944 2.944 0 0 0 60 58.05v-2A2.944 2.944 0 0 1 57.05 59H6.95A2.944 2.944 0 0 1 4 56.05z"/><rect style="fill:#be212e" width="56" height="56" x="4" y="4" rx="2.948"/><path style="opacity:.2" d="M20.697 19.004c-1.742.056-3.424.86-4.712 2.078-1.31 1.238-2.247 2.94-2.438 4.77a6.464 6.464 0 0 0 .29 2.718 5.602 5.602 0 0 0 1.441 2.286c.773.728 1.74 1.188 2.629 1.758.8b9cbe.284.87.602 1.238.988.368.384.675.842.844 1.356.15.456.184.948.118 1.424-.068.478-.238.94-.485 1.348-.496.816-1.295 1.41-2.172 1.728-1.017.368-2.137.386-3.117.85a4.072 4.072 0 0 0-1.836 1.786c-.407.778-.568 1.894-.469 2.774a4.726 4.726 0 0 0 1.309 2.746 4.778 4.778 0 0 0 2.648 1.364c1.452.23 3.504-.252 4.558-1.314a4.71 4.71 0 0 0 1.154-1.922c.224-.726.27-1.712.124-2.46-.112-.572-.328-1.114-.53-1.658-.204-.542-.398-1.098-.446-1.678-.086-1.026-.21-2.068.446-2.84.654-.772 1.572-1.78 2.538-2.004a4.691 4.691 0 0 1 1.901-.066c.63.112 1.24.37 1.75.768.51.4.918 1.442 1.144 2.064.228.62.268 1.32.086 1.956-.184.652-1.08 1.214-1.484 1.75-.402.536-.826 1.074-1.066 1.708a3.752 3.752 0 0 0-.11 2.21c.182.726.562 1.39 1.064 1.93.554.598 1.756 1.044 2.518 1.288.764.246 1.542.29 2.34.29.798 0 1.632-.044 2.396-.29.762-.244 1.964-.69 2.518-1.288a4.445 4.445 0 0 0 1.064-1.93 3.752 3.752 0 0 0-.11-2.21c-.24-.634-.664-1.172-1.066-1.708-.404-.536-1.3-1.098-1.484-1.75a3.191 3.191 0 0 1 .086-1.956c.226-.622.634-1.664 1.144-2.064a3.984 3.984 0 0 1 1.75-.768 4.691 4.691 0 0 1 1.902.066c.966.224 1.884 1.232 2.538 2.004.656.772.532 1.814.446 2.84-.048.58-.242 1.136-.446 1.678-.202.544-.418 1.086-.53 1.658-.146.748-.1 1.734.124 2.46a4.71 4.71 0 0 0 1.154 1.922c1.054 1.062 3.106 1.544 4.558 1.314a4.777 4.777 0 0 0 2.648-1.364 4.724 4.724 0 0 0 1.308-2.746c.1-.88-.062-1.996-.468-2.774a4.076 4.076 0 0 0-1.836-1.786c-.98-.464-2.1-.482-3.118-.85-.876-.318-1.676-.912-2.172-1.728a3.612 3.612 0 0 1-.484-1.348 3.178 3.178 0 0 1 .118-1.424c.168-.514.476-.972.844-1.356a6.602 6.602 0 0 1 1.238-.988c.888-.57 1.856-1.03 2.628-1.758a5.601 5.601 0 0 0 1.442-2.286 6.48 6.48 0 0 0 .29-2.718c-.19-1.83-1.13-3.532-2.438-4.77-1.288-1.218-2.97-2.022-4.712-2.078a5.875 5.875 0 0 0-2.546.48 5.49 5.49 0 0 0-2.086 1.598c-.636.8-1.036 1.77-1.402 2.734-.366.966-.712 1.954-1.266 2.816C35.09 28.056 33.646 29 32 29c-1.646 0-3.09-.944-4.004-2.368-.554-.862-.9-1.85-1.266-2.816-.366-.964-.766-1.934-1.402-2.734a5.49 5.49 0 0 0-2.085-1.597 5.875 5.875 0 0 0-2.546-.48zM32 31a2 2 0 1 1 0 4 2 2 0 0 1 0-4z"/><path style="fill:#f4f4f7" d="M20.697 18.005c-1.742.055-3.424.859-4.712 2.078-1.31 1.238-2.247 2.94-2.438 4.77a6.464 6.464 0 0 0 .29 2.717 5.602 5.602 0 0 0 1.441 2.286c.773.728 1.74 1.188 2.629 1.758.8b9cbe.284.87.602 1.238.988.368.384.675.842.844 1.356.15.456.184.948.118 1.424-.068.478-.238.94-.485 1.348-.496.816-1.295 1.41-2.172 1.728-1.017.368-2.137.386-3.117.85a4.072 4.072 0 0 0-1.836 1.786c-.407.778-.568 1.894-.469 2.774a4.726 4.726 0 0 0 1.309 2.746 4.778 4.778 0 0 0 2.648 1.364c1.452.23 3.504-.252 4.558-1.314a4.71 4.71 0 0 0 1.154-1.922c.224-.726.27-1.712.124-2.46-.112-.572-.328-1.114-.53-1.658-.204-.542-.398-1.098-.446-1.678-.086-1.026-.21-2.068.446-2.84.654-.772 1.572-1.78 2.538-2.004a4.691 4.691 0 0 1 1.901-.066c.63.112 1.24.37 1.75.768.51.4.918 1.442 1.144 2.064.228.62.268 1.32.086 1.956-.184.652-1.08 1.214-1.484 1.75-.402.536-.826 1.074-1.066 1.708a3.752 3.752 0 0 0-.11 2.21c.182.726.562 1.39 1.064 1.93.554.598 1.756 1.044 2.518 1.288.764.246 1.542.29 2.34.29.798 0 1.632-.044 2.396-.29.762-.244 1.964-.69 2.518-1.288a4.445 4.445 0 0 0 1.064-1.93 3.752 3.752 0 0 0-.11-2.21c-.24-.634-.664-1.172-1.066-1.708-.404-.536-1.3-1.098-1.484-1.75a3.191 3.191 0 0 1 .086-1.956c.226-.622.634-1.664 1.144-2.064a3.984 3.984 0 0 1 1.75-.768 4.691 4.691 0 0 1 1.902.066c.966.224 1.884 1.232 2.538 2.004.656.772.532 1.814.446 2.84-.048.58-.242 1.136-.446 1.678-.202.544-.418 1.086-.53 1.658-.146.748-.1 1.734.124 2.46a4.71 4.71 0 0 0 1.154 1.922c1.054 1.062 3.106 1.544 4.558 1.314a4.777 4.777 0 0 0 2.648-1.364 4.724 4.724 0 0 0 1.308-2.746c.1-.88-.062-1.996-.468-2.774a4.076 4.076 0 0 0-1.836-1.786c-.98-.464-2.1-.482-3.118-.85-.876-.318-1.676-.912-2.172-1.728a3.612 3.612 0 0 1-.484-1.348 3.178 3.178 0 0 1 .118-1.424c.168-.514.476-.972.844-1.356a6.602 6.602 0 0 1 1.238-.988c.888-.57 1.856-1.03 2.628-1.758a5.601 5.601 0 0 0 1.442-2.286 6.48 6.48 0 0 0 .29-2.717c-.19-1.83-1.13-3.532-2.438-4.77-1.288-1.219-2.97-2.023-4.712-2.078a5.875 5.875 0 0 0-2.546.48 5.49 5.49 0 0 0-2.086 1.598c-.636.8-1.036 1.77-1.402 2.734-.366.966-.712 1.954-1.266 2.816C35.09 27.057 33.646 28 32 28c-1.646 0-3.09-.944-4.004-2.367-.554-.862-.9-1.85-1.266-2.816-.366-.964-.766-1.934-1.402-2.734a5.49 5.49 0 0 0-2.085-1.598 5.875 5.875 0 0 0-2.546-.48zM32 30a2 2 0 1 1 0 4 2 2 0 0 1 0-4z"/><path style="opacity:.2;fill:#f4f4f7" d="M6.95 4A2.944 2.944 0 0 0 4 6.95v1A2.944 2.944 0 0 1 6.95 5h50.099A2.945 2.945 0 0 1 60 7.95v-1A2.945 2.945 0 0 0 57.049 4h-50.1z"/></svg>
